X:1
T:When on Clouds of Glory
T:When on Clouds of Glory
T:John Robson Sweney
T:Eliza Edmunds Hewitt, 1892
T:Public Domain Courtesy of the Cyber Hymnal™
T:Public Domain Courtesy of the Cyber Hymnal™
C:John Robson Sweney
Z:Public Domain
Z:Courtesy of the Cyber Hymnal™
%%score ( 1 2 ) ( 3 4 )
L:1/8
Q:1/4=97
M:4/4
K:F
V:1 treble 
V:2 treble 
V:3 bass 
V:4 bass 
V:1
 [FA][FA][FA][FA] [FA][FA][CG][CF] | [FA]2 [Fc]2 [Fc]4 | [Fd][Fd][Fd][Fd] [Fc][Fc][Fc][Fc] | %3
w: 1.~When on clouds of glo- ry Je- sus|comes a- gain,|Comes with shin- ing an- gels, Ev- er-|
w: 2.~When the great arch- an- gel Sounds the|trum- pet clear,|So from earth and o- cean All the|
w: 3.~When the sky a- bove us, On that|fi- nal day,|When the scenes a- round us Pass in|
 [EB]2 [FA]2 [EG]4 | [FA][FA][FA][FA] [FA][FA][CG][CF] | [FA]2 [Fc]2 [Fc]4 | %6
w: more to reign;|Will we greet His tri- umph With a|song of praise?|
w: dead shall hear,|Will our brows, il- lum- ined, Bear the|sav- ing name?|
w: flame a- way;|Then will Je- sus claim us As His|ve- ry own?|
 [Fd][Fd][FB][DG] [CF][CF][CE][CF] | [FA]2 [EG]2 F4 ||"^Refrain" [Ac]>[Bd] [Ac][GB] [FA]2 [FA]2 | %9
w: Or in si- lent rap- ture On His|beau- ty gaze?||
w: Will we meet King Je- sus With a|glad ac- claim?|On the Mount of Ol- ives,|
w: Then will we be stand- ing, Saved, be-|fore His throne?||
 [FA]>[FB] [FA][DG] [CF]4 | [EG][EG][EG][FA] [GB][GB][FA][EG] | (A4 c4) | %12
w: |||
w: When His feet shall rest,|Where shall we be num- bered, you and|I? *|
w: |||
 [Ac]>[Bd] [Ac][GB] [FA]2 [FA]2 | [FA]>[FB] [FA][CG] [CF]4 | %14
w: ||
w: Called a- mong the ran- somed,|Known a- mong the blest?|
w: ||
 [DG][DG]"^riten.".[DG].[^FA] .[GB].[GB] .[CE]>.[CE] | [CF]6 |] %16
w: ||
w: Shall we there be num- bered, you and|I?|
w: ||
V:2
 x8 | x8 | x8 | x8 | x8 | x8 | x8 | x4 F4 || x8 | x8 | x8 | F8 | x8 | x8 | x8 | x6 |] %16
V:3
 [F,C][F,C][F,C][F,C] [F,C][F,C][F,B,][F,A,] | [F,C]2 [F,A,]2 [F,A,]4 | %2
 B,B,B,B, [A,C][A,C][A,C][A,C] | [G,C]2 [F,C]2 [C,C]4 | %4
 [F,C][F,C][F,C][F,C] [F,C][F,C][F,B,][F,A,] | [F,C]2 [F,A,]2 [F,A,]4 | %6
 B,B,[B,D][B,,B,] [C,A,][C,A,][C,G,][C,A,] | [C,C]2 [C,B,]2 [F,A,]4 || %8
 [F,F]>[F,F] [F,F][F,F] [F,C]2 [F,C]2 | [F,C]>[F,D] [F,C][G,B,] [F,A,]4 | %10
 [C,C][C,C][C,C][C,C] [C,C][C,C][C,C][C,C] | (C4 A,4) | [F,F]>[F,F] [F,F][F,F] [F,C]2 [F,C]2 | %13
 [F,C]>[F,D] [F,C][F,B,] [F,A,]4 | [B,,B,][B,,B,][B,,B,][A,,C] [G,,D][G,,D] [C,B,]>[C,B,] | %15
 [F,A,]6 |] %16
V:4
 x8 | x8 | B,B,B,B, x4 | x8 | x8 | x8 | B,B, x6 | x8 || x8 | x8 | x8 | F,8 | x8 | x8 | x8 | x6 |] %16

